src/assets/img/svgs/colour-metro.svg

<?xml version="1.0" encoding="UTF-8"?>
<svg width="254px" height="254px" viewBox="0 0 254 254" version="1.1" xmlns="http://www.w3.org/2000/svg" xmlns:xlink="http://www.w3.org/1999/xlink">
    <!-- Generator: Sketch 58 (84663) - https://sketch.com -->
    <title>Icon / Modes / Colour / Metro</title>
    <desc>Created with Sketch.</desc>
    <g id="Icon-/-Modes-/-Colour-/-Metro" stroke="none" stroke-width="1" fill="none" fill-rule="evenodd">
        <rect id="Rectangle" fill="#FFFFFF" x="37" y="24" width="175" height="211"></rect>
        <path d="M228.48893,0.604651163 C242.429023,0.604651163 253.826977,12.0085581 253.826977,25.9456744 L253.826977,25.9456744 L253.826977,228.656 C253.826977,242.596093 242.429023,254 228.48893,254 L228.48893,254 L25.3410233,254 C11.4009302,254 0,242.596093 0,228.656 L0,228.656 L0.0119069767,25.9516279 C0.0119069767,12.0145116 11.415814,0.610604651 25.355907,0.610604651 L25.355907,0.610604651 Z M158.547349,181.370419 L153.183256,181.370419 L154.984186,192.074791 L158.020465,210.387721 C158.321116,212.206512 160.011907,213.587721 161.777116,213.587721 L161.777116,213.587721 L168.757581,213.587721 C170.522791,213.587721 171.412837,212.206512 170.749023,210.59014 L170.749023,210.59014 L163.030326,192.074791 L158.547349,181.370419 Z M99.5214884,181.370419 L94.1603721,181.370419 L89.6863256,192.074791 L81.9706047,210.59014 C81.2948837,212.206512 82.1849302,213.587721 83.9501395,213.587721 L83.9501395,213.587721 L90.9276279,213.587721 C92.7047442,213.587721 94.3866047,212.206512 94.6872558,210.387721 L94.6872558,210.387721 L97.7354419,192.074791 L99.5214884,181.370419 Z M126.419349,42.1242791 C125.264372,42.1242791 124.127256,42.544 123.261023,43.3983256 L123.261023,43.3983256 L107.28186,59.3477209 C105.537488,61.0712558 105.537488,63.9467907 107.28186,65.6613953 L107.28186,65.6613953 L115.685209,74.020093 L101.042605,74.020093 C89.227907,74.020093 78.7378605,83.643907 77.6989767,95.4258605 L77.6989767,95.4258605 L72.5194419,154.615442 C71.4924651,166.379535 80.3006512,176.021209 92.1272558,176.021209 L92.1272558,176.021209 L160.64893,176.021209 C172.463628,176.021209 181.283721,166.379535 180.244837,154.615442 L180.244837,154.615442 L175.077209,95.4258605 C174.038326,83.643907 163.539349,74.020093 151.730605,74.020093 L151.730605,74.020093 L137.090977,74.020093 L145.482419,65.5542326 C147.205953,63.8426047 147.205953,61.0712558 145.470512,59.2494884 L145.470512,59.2494884 L129.556837,43.3983256 C128.687628,42.544 127.553488,42.1242791 126.419349,42.1242791 Z M91.4753488,143.803907 C95.9136744,143.803907 99.5185116,147.444465 99.5185116,151.832186 C99.5185116,156.32707 95.9136744,159.860465 91.4753488,159.860465 C87.0429767,159.860465 83.4262326,156.32707 83.4262326,151.832186 C83.4262326,147.444465 87.0429767,143.803907 91.4753488,143.803907 Z M161.300837,143.803907 C165.718326,143.803907 169.338047,147.444465 169.338047,151.832186 C169.338047,156.32707 165.718326,159.860465 161.300837,159.860465 C156.859535,159.860465 153.251721,156.32707 153.251721,151.832186 C153.251721,147.444465 156.859535,143.803907 161.300837,143.803907 Z M153.07014,84.7244651 C158.882111,84.7244651 164.048974,89.3842177 164.704047,95.1373112 L164.733023,95.4258605 L167.56093,127.750326 C167.810835,130.571925 165.706294,132.985042 162.856178,133.098352 L162.646326,133.102512 L90.112,133.102512 C87.2322835,133.102512 85.0617375,130.756576 85.1953877,127.956028 L85.2093023,127.750326 L88.0372093,95.4258605 C88.5437438,89.637313 93.6351523,84.8826662 99.4135932,84.7283317 L99.7030698,84.7244651 L153.07014,84.7244651 Z M126.419349,51.6617674 L137.248744,62.4584186 L126.407442,73.3771163 L115.530419,62.4584186 L126.419349,51.6617674 Z" id="Metro" fill="#0075C9"></path>
    </g>
</svg>

<svg width="254" height="254" xmlns="http://www.w3.org/2000/svg"><g fill="none" fill-rule="evenodd"><path fill="#FFF" d="M37 24h175v211H37z"/><path d="M228.489.605c13.94 0 25.338 11.404 25.338 25.34v202.711c0 13.94-11.398 25.344-25.338 25.344H25.34C11.401 254 0 242.596 0 228.656L.012 25.952C.012 12.015 11.416.61 25.356.61zM158.547 181.37h-5.364l1.801 10.705 3.036 18.313c.301 1.819 1.992 3.2 3.757 3.2h6.98c1.766 0 2.656-1.381 1.992-2.998l-7.719-18.515-4.483-10.705zm-59.026 0h-5.36l-4.475 10.705-7.715 18.515c-.676 1.617.214 2.998 1.98 2.998h6.977c1.777 0 3.459-1.381 3.76-3.2l3.047-18.313 1.786-10.705zM126.42 42.124c-1.155 0-2.292.42-3.158 1.274l-15.98 15.95c-1.744 1.723-1.744 4.599 0 6.313l8.404 8.36h-14.642c-11.815 0-22.305 9.623-23.344 21.405l-5.18 59.19c-1.027 11.764 7.782 21.405 19.608 21.405h68.522c11.815 0 20.635-9.641 19.596-21.406l-5.168-59.19c-1.039-11.781-11.538-21.405-23.346-21.405h-14.64l8.391-8.466c1.724-1.711 1.724-4.483-.011-6.305L129.557 43.4a4.455 4.455 0 00-3.138-1.275zm-34.944 101.68c4.439 0 8.044 3.64 8.044 8.028 0 4.495-3.605 8.028-8.044 8.028-4.432 0-8.049-3.533-8.049-8.028 0-4.388 3.617-8.028 8.05-8.028zm69.826 0c4.417 0 8.037 3.64 8.037 8.028a8.007 8.007 0 01-8.037 8.028c-4.441 0-8.05-3.533-8.05-8.028 0-4.388 3.609-8.028 8.05-8.028zm-8.23-59.08c5.811 0 10.978 4.66 11.633 10.413l.029.289 2.828 32.324a4.88 4.88 0 01-4.705 5.348l-.21.005H90.112c-2.88 0-5.05-2.346-4.917-5.147l.014-.206 2.828-32.324c.507-5.789 5.598-10.543 11.377-10.698l.29-.004h53.366zM126.42 51.662l10.83 10.796-10.842 10.92-10.877-10.92 10.89-10.796z" fill="#0075C9"/></g></svg>
